symbols/web/location_off/materialsymbolsoutlined/location_off_wght300gradN25_40px.svg

<svg xmlns="http://www.w3.org/2000/svg" height="40" width="40"><path d="M22.167 18.125 18.542 14.5q.291-.25.666-.375Q19.583 14 20 14q1.125 0 1.896.771.771.771.771 1.896 0 .416-.125.791-.125.375-.375.667Zm12.75 19.583-8.167-8.125q-1.417 1.625-3.083 3.292Q22 34.542 20 36.25q-6.5-5.625-9.688-10.438Q7.125 21 7.125 17q0-1.625.333-3.062.334-1.438.917-2.73l-6-6L3.792 3.75l32.541 32.542Zm-5.167-12q1.542-2.416 2.333-4.562.792-2.146.792-4.146 0-6.042-3.896-9.625T20 3.792q-2.458 0-4.729.875T11.25 7.208l1.375 1.375q1.458-1.333 3.333-2.062 1.875-.729 4.042-.729 4.625 0 7.75 3.125T30.875 17q0 1.5-.667 3.333-.666 1.834-1.958 3.917ZM20 33.625q1.542-1.375 2.875-2.75t2.458-2.708L9.917 12.75q-.375.958-.584 2.021-.208 1.062-.208 2.229 0 3.167 2.771 7.479 2.771 4.313 8.104 9.146Zm-2.375-13.167Zm2.833-4.041Z"/></svg>

<svg xmlns="http://www.w3.org/2000/svg" height="40" width="40"><path d="M22.167 18.125 18.542 14.5Q18.833 14.25 19.208 14.125Q19.583 14 20 14Q21.125 14 21.896 14.771Q22.667 15.542 22.667 16.667Q22.667 17.083 22.542 17.458Q22.417 17.833 22.167 18.125ZM34.917 37.708 26.75 29.583Q25.333 31.208 23.667 32.875Q22 34.542 20 36.25Q13.5 30.625 10.312 25.812Q7.125 21 7.125 17Q7.125 15.375 7.458 13.938Q7.792 12.5 8.375 11.208L2.375 5.208L3.792 3.75L36.333 36.292ZM29.75 25.708Q31.292 23.292 32.083 21.146Q32.875 19 32.875 17Q32.875 10.958 28.979 7.375Q25.083 3.792 20 3.792Q17.542 3.792 15.271 4.667Q13 5.542 11.25 7.208L12.625 8.583Q14.083 7.25 15.958 6.521Q17.833 5.792 20 5.792Q24.625 5.792 27.75 8.917Q30.875 12.042 30.875 17Q30.875 18.5 30.208 20.333Q29.542 22.167 28.25 24.25ZM20 33.625Q21.542 32.25 22.875 30.875Q24.208 29.5 25.333 28.167L9.917 12.75Q9.542 13.708 9.333 14.771Q9.125 15.833 9.125 17Q9.125 20.167 11.896 24.479Q14.667 28.792 20 33.625ZM17.625 20.458Q17.625 20.458 17.625 20.458Q17.625 20.458 17.625 20.458Q17.625 20.458 17.625 20.458Q17.625 20.458 17.625 20.458Q17.625 20.458 17.625 20.458Q17.625 20.458 17.625 20.458ZM20.458 16.417Q20.458 16.417 20.458 16.417Q20.458 16.417 20.458 16.417Q20.458 16.417 20.458 16.417Q20.458 16.417 20.458 16.417Q20.458 16.417 20.458 16.417Q20.458 16.417 20.458 16.417Z"/></svg>
